X:52
T:The corner house
R:Reel
O:Ireland
B:Ceol 1 120
S:hnreel~1.abc
S:My arrangement from various sources
Z:Transcription, arrangement, chords:Mike Long
M:C|
K:G
AG|\
"Am"EAAG ABcd|~e2dB cBAG|"G"EGGF G2AB|(3(cBA) BG AGED|\
"Am"EAAG ABcd|
"C"eaag egge|"G"~d2Bd efge|"G"dBGB "Am"A2:|\
|:(3(B^cd)|\
"Am"eaag a2ga|"Em"bgab gedB|
"G"~d2Bd edBd|(3(efg) fa gdBd|\
"Am"eaag a2ga|"Em"bgab gedB|"G"~d2Bd efge|"G"dBGB "Am"A2:|
